X:191
T:Col. George's March. JJo2.191
Z:vmp.Robert Watkins 2014 www.village-music-project.org.uk
B:J.Johnson Choice Collection Vol 2 after c1750
M:C|
L:1/8
Q:1/2=100
K:G
d2ddd2d2|e2d2e2d2|e2d2c2B2|A4A4|
B2Bcd2de|ecded2gf#|edcBA3G|G8||
A2AAA2A2|B2BBB2B2|e2efe2d2|^c6e2|
f2ffe2ee|f2ffe2fg|a2gfe3d|d6d2|
g2ggg2f2|e2e2d2d2|e2d2c2B2|A6A2|
B2Bcd2de|dcded2gf|edcBA3G|G8|]
